X:179
T:The Crossing
C:Tim O'Brien
N:TablEdited by Bob Jackson
L:1/8
Q:1/4=250
M:4/4
K:A
z4 E3G |: "A"AB AG E2 EG | Ac dc ec AG | AB AG EC A,C | "G"DF ED CD EG | "A"AB AG E2 EG | 
Ac dc ec Ac | eg ab ag ec | "G"df ed cA BA | "A"GA zB AG EG | Ac dc ec AG | AB AG EC A,C | 
"G"DF ED CD EG | "A"AB AG E2 EG | Ac dc ec Ac | eg ab ag ec | "G"df ed cA Bc | 
"A"BA FG "E"AF GE | "F#m"F3G FE FG | "A"AG FE CD EC | "D"DB, ED "A"CB, A,C | "D"DE FD "E"EA GA | 
"F#m"F3G FE FG | "A"AG FE CD EC | DB, FD "A"EA GF | ED CB, "A"A,C EA | F3G FE FG | 
"A"AG FE CD EC | "D"DB, ED CB, A,C | "A"DE FD "E"EA GA | "F#m"F3G FE FG | "A"AG FE CD EC | 
"D"DB, FD "A"EA GF |1 "A"ED CB, "A"A,C EG :|2 "E"ED CB, "A"A,2 eg | ag ae fa ed | 
cA Bc A2 EG | AB AG EC A,C | D=G ED CB, A,2 | z8 | 


